flaticon/gastronomy/stew.svg

<svg xmlns="http://www.w3.org/2000/svg" width="32" height="32" viewBox="0 0 24 24">
    <path d="M 21.988281 11.351562 L 22.476562 8.601562 L 21.367188 8.601562 L 18.210938 5.445312 C 17.925781 5.160156 17.542969 5 17.136719 5 L 13.601562 5 C 13.601562 4.117188 12.882812 3.398438 12 3.398438 C 11.117188 3.398438 10.398438 4.117188 10.398438 5 L 6.863281 5 C 6.457031 5 6.074219 5.160156 5.789062 5.445312 L 2.632812 8.601562 L 1.523438 8.601562 L 2.015625 11.359375 C 1.457031 10.882812 0.761719 10.601562 0 10.601562 L 0 11.398438 C 1.167969 11.398438 2.117188 12.257812 2.402344 13.523438 L 3.21875 18.105469 C 3.210938 18.136719 3.199219 18.164062 3.199219 18.199219 C 3.199219 18.285156 3.230469 18.359375 3.277344 18.421875 L 3.441406 19.355469 C 3.570312 20.078125 4.195312 20.601562 4.929688 20.601562 L 19.070312 20.601562 C 19.804688 20.601562 20.429688 20.078125 20.558594 19.355469 L 21.59375 13.558594 C 21.875 12.273438 22.832031 11.398438 24 11.398438 L 24 10.601562 C 23.234375 10.601562 22.539062 10.875 21.988281 11.351562 Z M 19.035156 7.398438 L 4.964844 7.398438 L 5.367188 7 L 18.632812 7 Z M 12 4.199219 C 12.441406 4.199219 12.800781 4.558594 12.800781 5 L 11.199219 5 C 11.199219 4.558594 11.558594 4.199219 12 4.199219 Z M 6.863281 5.800781 L 17.136719 5.800781 C 17.328125 5.800781 17.507812 5.875 17.644531 6.011719 L 17.835938 6.199219 L 6.164062 6.199219 L 6.355469 6.011719 C 6.492188 5.875 6.671875 5.800781 6.863281 5.800781 Z M 4.164062 8.199219 L 19.835938 8.199219 L 20.234375 8.601562 L 3.765625 8.601562 Z M 19.769531 19.214844 C 19.707031 19.554688 19.414062 19.800781 19.070312 19.800781 L 4.929688 19.800781 C 4.585938 19.800781 4.292969 19.554688 4.230469 19.214844 L 4.121094 18.601562 L 7.601562 18.601562 C 7.820312 18.601562 8 18.421875 8 18.199219 C 8 17.980469 7.820312 17.800781 7.601562 17.800781 L 3.976562 17.800781 L 3.835938 17 L 6.398438 17 C 6.621094 17 6.800781 16.820312 6.800781 16.601562 C 6.800781 16.378906 6.621094 16.199219 6.398438 16.199219 L 3.691406 16.199219 L 3.546875 15.390625 C 3.566406 15.390625 3.582031 15.398438 3.601562 15.398438 L 5.601562 15.398438 C 5.820312 15.398438 6 15.222656 6 15 C 6 14.777344 5.820312 14.601562 5.601562 14.601562 L 3.601562 14.601562 C 3.53125 14.601562 3.472656 14.621094 3.414062 14.652344 L 3.246094 13.710938 C 3.230469 13.59375 3.210938 13.480469 3.1875 13.371094 L 2.476562 9.398438 L 21.523438 9.398438 L 20.808594 13.390625 C 20.789062 13.488281 20.769531 13.585938 20.757812 13.6875 Z M 19.769531 19.214844"/>
</svg>

<svg xmlns="http://www.w3.org/2000/svg" width="32" height="32" viewBox="0 0 24 24">
    <path d="M21.988 11.352l.489-2.75h-1.11l-3.156-3.157A1.513 1.513 0 0 0 17.137 5h-3.535c0-.883-.72-1.602-1.602-1.602-.883 0-1.602.72-1.602 1.602H6.863c-.406 0-.789.16-1.074.445L2.633 8.602h-1.11l.493 2.757A3.083 3.083 0 0 0 0 10.602v.796c1.168 0 2.117.86 2.402 2.125l.817 4.582c-.008.032-.02.06-.02.094 0 .086.031.16.078.223l.164.933a1.509 1.509 0 0 0 1.489 1.247h14.14c.735 0 1.36-.524 1.489-1.247l1.035-5.796c.281-1.286 1.238-2.16 2.406-2.16v-.797c-.766 0-1.46.273-2.012.75zm-2.953-3.954H4.965L5.367 7h13.266zM12 4.2c.441 0 .8.36.8.801h-1.6c0-.441.359-.8.8-.8zM6.863 5.801h10.274c.191 0 .37.074.508.21l.19.188H6.166l.19-.187a.712.712 0 0 1 .508-.211zM4.164 8.199h15.672l.398.403H3.766zM19.77 19.215a.712.712 0 0 1-.7.586H4.93a.712.712 0 0 1-.7-.586l-.109-.613h3.48a.401.401 0 0 0 0-.801H3.978L3.836 17h2.562a.401.401 0 1 0 0-.8H3.691l-.144-.81c.02 0 .035.008.055.008h2a.398.398 0 1 0 0-.796h-2c-.07 0-.13.02-.188.05l-.168-.941a4.392 4.392 0 0 0-.058-.34l-.711-3.973h19.046l-.714 3.993c-.02.097-.04.195-.051.296zm0 0"/>
</svg>
